images/3233823.svg

<?xml version="1.0" encoding="UTF-8"?>
<svg xmlns="http://www.w3.org/2000/svg" xmlns:xlink="http://www.w3.org/1999/xlink" width="300pt" height="300pt" viewBox="0 0 300 300" version="1.1">
<defs>
<g>
<symbol overflow="visible" id="glyph0-0">
<path style="stroke:none;" d="M 0.453125 1.59375 L 0.453125 -6.34375 L 4.953125 -6.34375 L 4.953125 1.59375 Z M 0.953125 1.09375 L 4.453125 1.09375 L 4.453125 -5.84375 L 0.953125 -5.84375 Z M 0.953125 1.09375 "/>
</symbol>
<symbol overflow="visible" id="glyph0-1">
<path style="stroke:none;" d="M 0.890625 -6.5625 L 2.078125 -6.5625 L 4.984375 -1.078125 L 4.984375 -6.5625 L 5.84375 -6.5625 L 5.84375 0 L 4.65625 0 L 1.75 -5.484375 L 1.75 0 L 0.890625 0 Z M 0.890625 -6.5625 "/>
</symbol>
<symbol overflow="visible" id="glyph0-2">
<path style="stroke:none;" d="M 0.890625 -6.5625 L 1.765625 -6.5625 L 1.765625 -3.875 L 5 -3.875 L 5 -6.5625 L 5.890625 -6.5625 L 5.890625 0 L 5 0 L 5 -3.125 L 1.765625 -3.125 L 1.765625 0 L 0.890625 0 Z M 0.890625 -6.5625 "/>
</symbol>
</g>
</defs>
<g id="surface35973">
<rect x="0" y="0" width="300" height="300" style="fill:rgb(100%,100%,100%);fill-opacity:1;stroke:none;"/>
<path style="fill:none;stroke-width:1.2;stroke-linecap:butt;stroke-linejoin:miter;stroke:rgb(0%,0%,0%);stroke-opacity:1;stroke-miterlimit:10;" d="M 248.710938 195.046875 L 247.738281 184.097656 "/>
<path style="fill:none;stroke-width:1.2;stroke-linecap:butt;stroke-linejoin:miter;stroke:rgb(0%,0%,100%);stroke-opacity:1;stroke-miterlimit:10;" d="M 247.738281 184.097656 L 246.761719 173.148438 "/>
<path style="fill:none;stroke-width:1.2;stroke-linecap:butt;stroke-linejoin:miter;stroke:rgb(0%,0%,100%);stroke-opacity:1;stroke-miterlimit:10;" d="M 246.761719 173.148438 L 255.757812 166.832031 "/>
<path style="fill:none;stroke-width:1.2;stroke-linecap:butt;stroke-linejoin:miter;stroke:rgb(0%,0%,0%);stroke-opacity:1;stroke-miterlimit:10;" d="M 255.757812 166.832031 L 264.75 160.511719 "/>
<path style="fill:none;stroke-width:1.2;stroke-linecap:butt;stroke-linejoin:miter;stroke:rgb(0%,0%,100%);stroke-opacity:1;stroke-miterlimit:10;" d="M 246.761719 173.148438 L 236.792969 168.519531 "/>
<path style="fill:none;stroke-width:1.2;stroke-linecap:butt;stroke-linejoin:miter;stroke:rgb(0%,0%,0%);stroke-opacity:1;stroke-miterlimit:10;" d="M 236.792969 168.519531 L 226.824219 163.890625 "/>
<path style=" stroke:none;fill-rule:nonzero;fill:rgb(100%,100%,100%);fill-opacity:1;" d="M 243.761719 167.648438 L 250.761719 167.648438 L 250.761719 178.648438 L 243.761719 178.648438 Z M 243.761719 167.648438 "/>
<g style="fill:rgb(0%,0%,100%);fill-opacity:1;">
  <use xlink:href="#glyph0-1" x="243.761719" y="176.311523"/>
</g>
<path style="fill:none;stroke-width:1.2;stroke-linecap:butt;stroke-linejoin:miter;stroke:rgb(0%,0%,0%);stroke-opacity:1;stroke-miterlimit:10;" d="M 226.824219 163.890625 L 208.835938 176.527344 "/>
<path style="fill:none;stroke-width:1.2;stroke-linecap:butt;stroke-linejoin:miter;stroke:rgb(0%,0%,0%);stroke-opacity:1;stroke-miterlimit:10;" d="M 222.054688 160.921875 L 207.664062 171.03125 "/>
<path style="fill:none;stroke-width:1.2;stroke-linecap:butt;stroke-linejoin:miter;stroke:rgb(0%,0%,0%);stroke-opacity:1;stroke-miterlimit:10;" d="M 224.875 141.992188 L 226.824219 163.890625 "/>
<path style="fill:none;stroke-width:1.2;stroke-linecap:butt;stroke-linejoin:miter;stroke:rgb(0%,0%,0%);stroke-opacity:1;stroke-miterlimit:10;" d="M 208.835938 176.527344 L 188.898438 167.265625 "/>
<path style="fill:none;stroke-width:1.2;stroke-linecap:butt;stroke-linejoin:miter;stroke:rgb(0%,0%,0%);stroke-opacity:1;stroke-miterlimit:10;" d="M 188.898438 167.265625 L 186.949219 145.371094 "/>
<path style="fill:none;stroke-width:1.2;stroke-linecap:butt;stroke-linejoin:miter;stroke:rgb(0%,0%,0%);stroke-opacity:1;stroke-miterlimit:10;" d="M 193.855469 164.617188 L 192.296875 147.101562 "/>
<path style="fill:none;stroke-width:1.2;stroke-linecap:butt;stroke-linejoin:miter;stroke:rgb(0%,0%,0%);stroke-opacity:1;stroke-miterlimit:10;" d="M 186.949219 145.371094 L 204.9375 132.734375 "/>
<path style="fill:none;stroke-width:1.2;stroke-linecap:butt;stroke-linejoin:miter;stroke:rgb(0%,0%,0%);stroke-opacity:1;stroke-miterlimit:10;" d="M 186.949219 145.371094 L 167.011719 136.109375 "/>
<path style="fill:none;stroke-width:1.2;stroke-linecap:butt;stroke-linejoin:miter;stroke:rgb(0%,0%,0%);stroke-opacity:1;stroke-miterlimit:10;" d="M 204.9375 132.734375 L 224.875 141.992188 "/>
<path style="fill:none;stroke-width:1.2;stroke-linecap:butt;stroke-linejoin:miter;stroke:rgb(0%,0%,0%);stroke-opacity:1;stroke-miterlimit:10;" d="M 204.753906 138.351562 L 220.703125 145.757812 "/>
<path style="fill:none;stroke-width:1.2;stroke-linecap:butt;stroke-linejoin:miter;stroke:rgb(0%,0%,0%);stroke-opacity:1;stroke-miterlimit:10;" d="M 167.011719 136.109375 L 166.039062 125.164062 "/>
<path style="fill:none;stroke-width:1.2;stroke-linecap:butt;stroke-linejoin:miter;stroke:rgb(0%,0%,100%);stroke-opacity:1;stroke-miterlimit:10;" d="M 166.039062 125.164062 L 165.0625 114.214844 "/>
<path style="fill:none;stroke-width:1.2;stroke-linecap:butt;stroke-linejoin:miter;stroke:rgb(0%,0%,0%);stroke-opacity:1;stroke-miterlimit:10;" d="M 161.664062 134.378906 L 160.886719 125.621094 "/>
<path style="fill:none;stroke-width:1.2;stroke-linecap:butt;stroke-linejoin:miter;stroke:rgb(0%,0%,100%);stroke-opacity:1;stroke-miterlimit:10;" d="M 160.886719 125.621094 L 160.105469 116.863281 "/>
<path style="fill:none;stroke-width:1.2;stroke-linecap:butt;stroke-linejoin:miter;stroke:rgb(0%,0%,100%);stroke-opacity:1;stroke-miterlimit:10;" d="M 149.023438 148.746094 L 158.019531 142.429688 "/>
<path style="fill:none;stroke-width:1.2;stroke-linecap:butt;stroke-linejoin:miter;stroke:rgb(0%,0%,0%);stroke-opacity:1;stroke-miterlimit:10;" d="M 158.019531 142.429688 L 167.011719 136.109375 "/>
<path style="fill:none;stroke-width:1.2;stroke-linecap:butt;stroke-linejoin:miter;stroke:rgb(0%,0%,100%);stroke-opacity:1;stroke-miterlimit:10;" d="M 165.0625 114.214844 L 155.09375 109.585938 "/>
<path style="fill:none;stroke-width:1.2;stroke-linecap:butt;stroke-linejoin:miter;stroke:rgb(0%,0%,0%);stroke-opacity:1;stroke-miterlimit:10;" d="M 155.09375 109.585938 L 145.125 104.953125 "/>
<path style=" stroke:none;fill-rule:nonzero;fill:rgb(100%,100%,100%);fill-opacity:1;" d="M 162.0625 108.714844 L 169.0625 108.714844 L 169.0625 119.714844 L 162.0625 119.714844 Z M 162.0625 108.714844 "/>
<g style="fill:rgb(0%,0%,100%);fill-opacity:1;">
  <use xlink:href="#glyph0-1" x="162.0625" y="117.37793"/>
</g>
<path style="fill:none;stroke-width:1.2;stroke-linecap:butt;stroke-linejoin:miter;stroke:rgb(0%,0%,0%);stroke-opacity:1;stroke-miterlimit:10;" d="M 145.125 104.953125 L 127.136719 117.589844 "/>
<path style="fill:none;stroke-width:1.2;stroke-linecap:butt;stroke-linejoin:miter;stroke:rgb(0%,0%,0%);stroke-opacity:1;stroke-miterlimit:10;" d="M 146.300781 110.449219 L 131.910156 120.558594 "/>
<path style="fill:none;stroke-width:1.2;stroke-linecap:butt;stroke-linejoin:miter;stroke:rgb(0%,0%,0%);stroke-opacity:1;stroke-miterlimit:10;" d="M 127.136719 117.589844 L 129.085938 139.488281 "/>
<path style="fill:none;stroke-width:1.2;stroke-linecap:butt;stroke-linejoin:miter;stroke:rgb(0%,0%,0%);stroke-opacity:1;stroke-miterlimit:10;" d="M 129.085938 139.488281 L 139.054688 144.117188 "/>
<path style="fill:none;stroke-width:1.2;stroke-linecap:butt;stroke-linejoin:miter;stroke:rgb(0%,0%,100%);stroke-opacity:1;stroke-miterlimit:10;" d="M 139.054688 144.117188 L 149.023438 148.746094 "/>
<path style="fill:none;stroke-width:1.2;stroke-linecap:butt;stroke-linejoin:miter;stroke:rgb(0%,0%,0%);stroke-opacity:1;stroke-miterlimit:10;" d="M 133.261719 135.722656 L 141.234375 139.425781 "/>
<path style="fill:none;stroke-width:1.2;stroke-linecap:butt;stroke-linejoin:miter;stroke:rgb(0%,0%,100%);stroke-opacity:1;stroke-miterlimit:10;" d="M 141.234375 139.425781 L 149.210938 143.128906 "/>
<path style="fill:none;stroke-width:1.2;stroke-linecap:butt;stroke-linejoin:miter;stroke:rgb(0%,0%,0%);stroke-opacity:1;stroke-miterlimit:10;" d="M 129.085938 139.488281 L 120.09375 145.804688 "/>
<path style="fill:none;stroke-width:1.2;stroke-linecap:butt;stroke-linejoin:miter;stroke:rgb(0%,0%,100%);stroke-opacity:1;stroke-miterlimit:10;" d="M 120.09375 145.804688 L 111.101562 152.125 "/>
<path style=" stroke:none;fill-rule:nonzero;fill:rgb(100%,100%,100%);fill-opacity:1;" d="M 146.023438 143.246094 L 153.023438 143.246094 L 153.023438 154.246094 L 146.023438 154.246094 Z M 146.023438 143.246094 "/>
<g style="fill:rgb(0%,0%,100%);fill-opacity:1;">
  <use xlink:href="#glyph0-1" x="146.023438" y="151.90918"/>
</g>
<path style="fill:none;stroke-width:1.2;stroke-linecap:butt;stroke-linejoin:miter;stroke:rgb(0%,0%,100%);stroke-opacity:1;stroke-miterlimit:10;" d="M 111.101562 152.125 L 101.132812 147.492188 "/>
<path style="fill:none;stroke-width:1.2;stroke-linecap:butt;stroke-linejoin:miter;stroke:rgb(0%,0%,0%);stroke-opacity:1;stroke-miterlimit:10;" d="M 101.132812 147.492188 L 91.164062 142.863281 "/>
<path style=" stroke:none;fill-rule:nonzero;fill:rgb(100%,100%,100%);fill-opacity:1;" d="M 104.101562 146.625 L 118.101562 146.625 L 118.101562 157.625 L 104.101562 157.625 Z M 104.101562 146.625 "/>
<g style="fill:rgb(0%,0%,100%);fill-opacity:1;">
  <use xlink:href="#glyph0-1" x="104.101562" y="155.288086"/>
  <use xlink:href="#glyph0-2" x="111.079102" y="155.288086"/>
</g>
<path style="fill:none;stroke-width:1.2;stroke-linecap:butt;stroke-linejoin:miter;stroke:rgb(0%,0%,0%);stroke-opacity:1;stroke-miterlimit:10;" d="M 91.164062 142.863281 L 73.175781 155.5 "/>
<path style="fill:none;stroke-width:1.2;stroke-linecap:butt;stroke-linejoin:miter;stroke:rgb(0%,0%,0%);stroke-opacity:1;stroke-miterlimit:10;" d="M 73.175781 155.5 L 53.238281 146.242188 "/>
<path style="fill:none;stroke-width:1.2;stroke-linecap:butt;stroke-linejoin:miter;stroke:rgb(0%,0%,0%);stroke-opacity:1;stroke-miterlimit:10;" d="M 69.003906 159.265625 L 53.054688 151.859375 "/>
<path style="fill:none;stroke-width:1.2;stroke-linecap:butt;stroke-linejoin:miter;stroke:rgb(0%,0%,0%);stroke-opacity:1;stroke-miterlimit:10;" d="M 75.125 177.398438 L 73.175781 155.5 "/>
<path style="fill:none;stroke-width:1.2;stroke-linecap:butt;stroke-linejoin:miter;stroke:rgb(0%,0%,0%);stroke-opacity:1;stroke-miterlimit:10;" d="M 53.238281 146.242188 L 35.25 158.878906 "/>
<path style="fill:none;stroke-width:1.2;stroke-linecap:butt;stroke-linejoin:miter;stroke:rgb(0%,0%,0%);stroke-opacity:1;stroke-miterlimit:10;" d="M 35.25 158.878906 L 37.199219 180.773438 "/>
<path style="fill:none;stroke-width:1.2;stroke-linecap:butt;stroke-linejoin:miter;stroke:rgb(0%,0%,0%);stroke-opacity:1;stroke-miterlimit:10;" d="M 40.597656 160.609375 L 42.15625 178.125 "/>
<path style="fill:none;stroke-width:1.2;stroke-linecap:butt;stroke-linejoin:miter;stroke:rgb(0%,0%,0%);stroke-opacity:1;stroke-miterlimit:10;" d="M 37.199219 180.773438 L 57.136719 190.03125 "/>
<path style="fill:none;stroke-width:1.2;stroke-linecap:butt;stroke-linejoin:miter;stroke:rgb(0%,0%,0%);stroke-opacity:1;stroke-miterlimit:10;" d="M 57.136719 190.03125 L 75.125 177.398438 "/>
<path style="fill:none;stroke-width:1.2;stroke-linecap:butt;stroke-linejoin:miter;stroke:rgb(0%,0%,0%);stroke-opacity:1;stroke-miterlimit:10;" d="M 55.960938 184.535156 L 70.351562 174.429688 "/>
</g>
</svg>

<svg xmlns="http://www.w3.org/2000/svg" xmlns:xlink="http://www.w3.org/1999/xlink" width="300pt" height="300pt" viewBox="0 0 300 300"><defs><symbol overflow="visible"><path d="M.453 1.594v-7.938h4.5v7.938zm.5-.5h3.5v-6.938h-3.5zm0 0"/></symbol><symbol overflow="visible" id="a"><path d="M.89-6.563H2.08l2.906 5.485v-5.484h.86V0H4.656L1.75-5.484V0H.89zm0 0"/></symbol><symbol overflow="visible" id="b"><path d="M.89-6.563h.876v2.688H5v-2.688h.89V0H5v-3.125H1.766V0H.89zm0 0"/></symbol></defs><g><path fill="#fff" d="M0 0h300v300H0z"/><path d="M248.71 195.047l-.972-10.95" stroke-width="1.2" stroke="#000" stroke-miterlimit="10" fill="none"/><path d="M247.738 184.098l-.976-10.95M246.762 173.148l8.996-6.316" stroke-width="1.2" stroke="#00f" stroke-miterlimit="10" fill="none"/><path d="M255.758 166.832l8.992-6.32" stroke-width="1.2" stroke="#000" stroke-miterlimit="10" fill="none"/><path d="M246.762 173.148l-9.97-4.628" stroke-width="1.2" stroke="#00f" stroke-miterlimit="10" fill="none"/><path d="M236.793 168.52l-9.97-4.63" stroke-width="1.2" stroke="#000" stroke-miterlimit="10" fill="none"/><path d="M243.762 167.648h7v11h-7zm0 0" fill="#fff"/><use xlink:href="#a" x="243.762" y="176.312" fill="#00f"/><path d="M226.824 163.89l-17.988 12.637M222.055 160.922l-14.39 10.11M224.875 141.992l1.95 21.9M208.836 176.527l-19.938-9.26M188.898 167.266l-1.95-21.895M193.855 164.617l-1.558-17.515M186.95 145.37l17.988-12.636M186.95 145.37l-19.938-9.26M204.938 132.734l19.937 9.258M204.754 138.352l15.95 7.406M167.012 136.11l-.973-10.946" stroke-width="1.2" stroke="#000" stroke-miterlimit="10" fill="none"/><path d="M166.04 125.164l-.977-10.95" stroke-width="1.2" stroke="#00f" stroke-miterlimit="10" fill="none"/><path d="M161.664 134.38l-.777-8.76" stroke-width="1.2" stroke="#000" stroke-miterlimit="10" fill="none"/><path d="M160.887 125.62l-.782-8.757M149.023 148.746l8.997-6.316" stroke-width="1.2" stroke="#00f" stroke-miterlimit="10" fill="none"/><path d="M158.02 142.43l8.992-6.32" stroke-width="1.2" stroke="#000" stroke-miterlimit="10" fill="none"/><path d="M165.063 114.215l-9.97-4.63" stroke-width="1.2" stroke="#00f" stroke-miterlimit="10" fill="none"/><path d="M155.094 109.586l-9.97-4.633" stroke-width="1.2" stroke="#000" stroke-miterlimit="10" fill="none"/><path d="M162.063 108.715h7v11h-7zm0 0" fill="#fff"/><use xlink:href="#a" x="162.063" y="117.378" fill="#00f"/><path d="M145.125 104.953l-17.988 12.637M146.3 110.45l-14.39 10.11M127.137 117.59l1.95 21.898M129.086 139.488l9.97 4.63" stroke-width="1.2" stroke="#000" stroke-miterlimit="10" fill="none"/><path d="M139.055 144.117l9.968 4.63" stroke-width="1.2" stroke="#00f" stroke-miterlimit="10" fill="none"/><path d="M133.262 135.723l7.972 3.703" stroke-width="1.2" stroke="#000" stroke-miterlimit="10" fill="none"/><path d="M141.234 139.426l7.977 3.703" stroke-width="1.2" stroke="#00f" stroke-miterlimit="10" fill="none"/><path d="M129.086 139.488l-8.992 6.317" stroke-width="1.2" stroke="#000" stroke-miterlimit="10" fill="none"/><path d="M120.094 145.805l-8.992 6.32" stroke-width="1.2" stroke="#00f" stroke-miterlimit="10" fill="none"/><path d="M146.023 143.246h7v11h-7zm0 0" fill="#fff"/><use xlink:href="#a" x="146.023" y="151.909" fill="#00f"/><path d="M111.102 152.125l-9.97-4.633" stroke-width="1.2" stroke="#00f" stroke-miterlimit="10" fill="none"/><path d="M101.133 147.492l-9.97-4.63" stroke-width="1.2" stroke="#000" stroke-miterlimit="10" fill="none"/><path d="M104.102 146.625h14v11h-14zm0 0" fill="#fff"/><g fill="#00f"><use xlink:href="#a" x="104.102" y="155.288"/><use xlink:href="#b" x="111.079" y="155.288"/></g><path d="M91.164 142.863L73.176 155.5M73.176 155.5l-19.938-9.258M69.004 159.266l-15.95-7.407M75.125 177.398l-1.95-21.898M53.238 146.242L35.25 158.88M35.25 158.88l1.95 21.893M40.598 160.61l1.558 17.515M37.2 180.773l19.937 9.258M57.137 190.03L75.125 177.4M55.96 184.535l14.392-10.105" stroke-width="1.2" stroke="#000" stroke-miterlimit="10" fill="none"/></g></svg>
